on_platform_logo_dark.svg

<svg width="80" height="24" viewBox="0 0 80 24" fill="none" xmlns="http://www.w3.org/2000/svg">
<g clip-path="url(#clip0_116_39)">
<path d="M12.18 24C18.9068 24 24.36 18.6274 24.36 12C24.36 5.37258 18.9068 0 12.18 0C5.45317 0 0 5.37258 0 12C0 18.6274 5.45317 24 12.18 24Z" fill="#FF0000"/>
<path d="M12.18 19.2C16.2161 19.2 19.488 15.9765 19.488 12C19.488 8.0236 16.2161 4.80005 12.18 4.80005C8.14391 4.80005 4.87201 8.0236 4.87201 12C4.87201 15.9765 8.14391 19.2 12.18 19.2Z" fill="#FF0000" stroke="white" stroke-width="1.2"/>
<path d="M9.74402 15.545L16.071 12.001L9.74402 8.45504V15.545ZM37.433 9.64204C36.854 12.495 36.414 15.978 36.183 17.416H36.02C35.833 15.934 35.393 12.474 34.793 9.66604L33.31 2.67704H28.79V21.527H31.593V5.98704L31.87 7.43804L34.72 21.524H37.524L40.327 7.43804L40.627 5.97904V21.526H43.431V2.67604H38.868L37.433 9.64204ZM51.01 18.696C50.754 19.213 50.2 19.572 49.642 19.572C48.994 19.572 48.738 19.078 48.738 17.866V7.75404H45.54V18.044C45.54 20.584 46.396 21.75 48.298 21.75C49.594 21.75 50.636 21.188 51.356 19.841H51.426L51.703 21.525H54.205V7.75504H51.007V18.695L51.01 18.696ZM60.392 13.19C59.349 12.448 58.701 11.954 58.701 10.876C58.701 10.113 59.071 9.68604 59.951 9.68604C60.856 9.68604 61.157 10.291 61.178 12.36L63.867 12.249C64.075 8.90304 62.939 7.50904 59.997 7.50904C57.264 7.50904 55.919 8.69904 55.919 11.147C55.919 13.371 57.032 14.382 58.839 15.709C60.392 16.878 61.296 17.529 61.296 18.473C61.296 19.193 60.832 19.686 60.021 19.686C59.071 19.686 58.514 18.809 58.656 17.281L55.946 17.325C55.527 20.177 56.712 21.84 59.861 21.84C62.619 21.84 64.056 20.604 64.056 18.134C64.053 15.887 62.896 14.987 60.392 13.19ZM68.872 7.75404H65.813V21.524H68.873V7.75504L68.872 7.75404ZM67.365 2.31604C66.185 2.31604 65.627 2.74304 65.627 4.22704C65.627 5.75504 66.181 6.13604 67.366 6.13604C68.571 6.13604 69.104 5.75304 69.104 4.22704C69.104 2.81304 68.571 2.31604 67.365 2.31604ZM79.158 16.56L76.355 16.425C76.355 18.851 76.078 19.637 75.129 19.637C74.179 19.637 74.016 18.76 74.016 15.907V13.237C74.016 10.472 74.203 9.59804 75.153 9.59804C76.033 9.59804 76.265 10.428 76.265 12.991L79.043 12.813C79.23 10.679 78.95 9.21804 78.094 8.38804C77.467 7.78004 76.518 7.49104 75.198 7.49104C72.094 7.49104 70.819 9.10904 70.819 13.645V15.577C70.819 20.25 71.907 21.755 75.083 21.755C76.427 21.755 77.353 21.485 77.979 20.901C78.881 20.087 79.227 18.696 79.158 16.56Z" fill="black"/>
<path d="M10.2496 14.6884L10.2474 9.3145L15.0369 11.9969L10.2496 14.6884Z" fill="white" stroke="white"/>
</g>
<defs>
<clipPath id="clip0_116_39">
<rect width="80" height="24" fill="white"/>
</clipPath>
</defs>
</svg>

<svg width="80" height="24" fill="none" xmlns="http://www.w3.org/2000/svg"><ellipse cx="12.18" cy="12" rx="12.18" ry="12" fill="red"/><ellipse cx="12.18" cy="12" rx="7.308" ry="7.2" fill="red" stroke="#fff" stroke-width="1.2"/><path d="M9.744 15.545l6.327-3.544-6.327-3.546v7.09zM37.433 9.642c-.579 2.853-1.019 6.336-1.25 7.774h-.163c-.187-1.482-.627-4.942-1.227-7.75L33.31 2.677h-4.52v18.85h2.803V5.987l.277 1.451 2.85 14.086h2.804l2.803-14.086.3-1.459v15.547h2.804V2.676h-4.563l-1.435 6.966zM51.01 18.696c-.256.517-.81.876-1.368.876-.648 0-.904-.494-.904-1.706V7.754H45.54v10.29c0 2.54.856 3.706 2.758 3.706 1.296 0 2.338-.562 3.058-1.909h.07l.277 1.684h2.502V7.755h-3.198v10.94h.003zM60.392 13.19c-1.043-.742-1.691-1.236-1.691-2.314 0-.763.37-1.19 1.25-1.19.905 0 1.206.605 1.227 2.674l2.689-.111c.208-3.346-.928-4.74-3.87-4.74-2.733 0-4.078 1.19-4.078 3.638 0 2.224 1.113 3.235 2.92 4.562 1.553 1.169 2.457 1.82 2.457 2.764 0 .72-.464 1.213-1.275 1.213-.95 0-1.507-.877-1.365-2.405l-2.71.044c-.419 2.852.766 4.515 3.915 4.515 2.758 0 4.195-1.236 4.195-3.706-.003-2.247-1.16-3.147-3.664-4.944zM68.872 7.754h-3.059v13.77h3.06V7.755zM67.365 2.316c-1.18 0-1.738.427-1.738 1.911 0 1.528.554 1.909 1.739 1.909 1.205 0 1.738-.383 1.738-1.909 0-1.414-.533-1.911-1.739-1.911zM79.158 16.56l-2.803-.135c0 2.426-.277 3.212-1.226 3.212-.95 0-1.113-.877-1.113-3.73v-2.67c0-2.765.187-3.639 1.137-3.639.88 0 1.112.83 1.112 3.393l2.778-.178c.187-2.134-.093-3.595-.949-4.425-.627-.608-1.576-.897-2.896-.897-3.104 0-4.379 1.618-4.379 6.154v1.932c0 4.673 1.088 6.178 4.264 6.178 1.344 0 2.27-.27 2.896-.854.902-.814 1.249-2.205 1.18-4.341z" fill="#fff"/></svg>
